src/assets/footer/Mi.svg

<svg fill="none" height="37" viewBox="0 0 36 37" width="36" xmlns="http://www.w3.org/2000/svg"><circle cx="18" cy="18.7695" r="17.25" stroke="#000" stroke-opacity=".1" stroke-width="1.5"/><path clip-rule="evenodd" d="m18 27.7695c4.9706 0 9-4.0294 9-9 0-4.9705-4.0294-8.99997-9-8.99997s-9 4.02947-9 8.99997c0 4.9706 4.0294 9 9 9zm0-13.0909c-1.8075 0-3.2727 1.4653-3.2727 3.2727v4.9091h6.5454v-4.909c0-1.8075-1.4652-3.2728-3.2727-3.2728z" fill="#000" fill-opacity=".5" fill-rule="evenodd"/></svg>

<svg width="36" height="37" viewBox="0 0 36 37" fill="none" xmlns="http://www.w3.org/2000/svg">
<circle cx="18" cy="18.7695" r="17.25" stroke="black" stroke-opacity="0.1" stroke-width="1.5"/>
<path fill-rule="evenodd" clip-rule="evenodd" d="M18 27.7695C22.9706 27.7695 27 23.7401 27 18.7695C27 13.799 22.9706 9.76953 18 9.76953C13.0294 9.76953 9 13.799 9 18.7695C9 23.7401 13.0294 27.7695 18 27.7695ZM18 14.6786C16.1925 14.6786 14.7273 16.1439 14.7273 17.9513V22.8604H21.2727V17.9514C21.2727 16.1439 19.8075 14.6786 18 14.6786Z" fill="black" fill-opacity="0.5"/>
</svg>
